X:1
T:Title
%%score ( 1 2 ) ( 3 4 5 )
L:1/8
M:4/4
K:Eb
V:1 treble nm="Choir Aahs, Staff"
V:2 treble 
V:3 bass nm="Choir Aahs, Staff-1"
V:4 bass 
V:5 bass 
V:1
 [GB]4 [EG]2 [FA]2 | [GB]4 [GB]4 | [Ac]2 [Ac]2 [Ac]2 [Ac]2 | c4 z4 | [GB]4 [Ge]2 [Ge]2 | %5
w: By~Joseph~Barnby * *|||||
 z4 z2 .=A2 | [DF]4 [Ec]4 | [DB]8 | [DB]4 [DF]2 [DG]2 | [DF]4 E4 | [_DB]2 [DB]2 [Dc]2 [DB]2 | %11
w: ||||||
 [CA]8 | [DG]3 [DF] [EB]4- | [EB]4 E4 | [CA]3 [CG] [DF]4- | [DF]4 E4- | E4 z4 |] %17
w: ||||||
V:2
 x8 | x8 | x8 | A4- [AB]4 | x8 | [_Gd]2 [Dc]2 [DB]2 C-[C=G] | x8 | x8 | x8 | x8 | x8 | x8 | x8 | %13
 x8 | x8 | x8 | x8 |] %17
V:3
 [E,B,]4 [E,B,]2 [E,B,]2 | E6 z2 | [A,,C]2 [B,,D]2 [C,E]2 [A,,C]2 | [D,F]8 | %4
 [E,B,]4 [C,C]2 [C,C]2 | [D,=A,]2 [_G,A,]2 [=G,B,]2 [=E,B,]2 | [F,B,]4 [F,=A,]4 | [B,,B,]8 | %8
 [A,B,]4 [A,B,]2 [A,B,]2 | [A,B,]4 [G,B,]4 | [E,G,]2 [E,G,]2 [E,F,]2 [E,G,]2 | [A,,A,]8 | %12
 [A,B,]3 [A,B,] [G,B,]4- | [G,B,]4 [C,C]4 | [F,C]3 [F,B,] [B,,A,]4- | [B,,A,]4 [E,G,]4- | %16
 [E,G,]4 z4 |] %17
V:4
 x8 | E,4 z2 D2 | x8 | x8 | x8 | x8 | x8 | x8 | x8 | x8 | x8 | x8 | x8 | x8 | x8 | x8 | x8 |] %17
V:5
 x8 | z4 E,4 | x8 | x8 | x8 | x8 | x8 | x8 | x8 | x8 | x8 | x8 | x8 | x8 | x8 | x8 | x8 |] %17

